src/4-icons/search.svg

<svg width="260" height="260" viewBox="0 0 260 260" fill="none" xmlns="http://www.w3.org/2000/svg">
<path d="M106.288 54.4698C72.8779 54.4698 45.8125 81.5616 45.8125 114.945C45.8125 148.355 72.8779 175.421 106.288 175.421C117.78 175.421 128.543 172.222 137.696 166.632C138.241 167.854 138.918 169.024 139.828 170.064L174.59 209.324C177.033 212.106 180.518 213.588 183.976 213.588C187.174 213.588 190.424 212.313 192.842 209.87L201.136 201.575C203.58 199.157 204.854 195.907 204.854 192.683C204.854 189.225 203.372 185.767 200.616 183.297L161.356 148.56C160.316 147.65 159.146 146.975 157.951 146.429C163.541 137.25 166.764 126.487 166.764 114.969C166.764 81.5322 139.672 54.4668 106.288 54.4668V54.4698ZM70.8497 150.358C61.7761 141.284 56.1861 128.778 56.1861 114.946C56.1861 101.088 61.7761 88.608 70.8497 79.5344C79.9233 70.4609 92.4297 64.8709 106.261 64.8709C120.12 64.8709 132.6 70.4609 141.673 79.5344C150.747 88.608 156.338 101.114 156.338 114.946C156.338 128.336 151.086 140.401 142.558 149.396L140.738 151.216C131.742 159.771 119.652 165.023 106.261 165.023C92.4297 165.048 79.9497 159.433 70.8497 150.358ZM152.411 155.61C153.217 155.61 153.946 155.895 154.44 156.338L193.674 191.126C194.22 191.621 194.429 192.166 194.429 192.738C194.429 193.258 194.247 193.778 193.779 194.273L185.485 202.566C184.991 203.061 184.497 203.216 183.977 203.216C183.405 203.216 182.885 203.008 182.365 202.462L147.604 163.202C147.162 162.682 146.875 161.953 146.875 161.173C146.875 160.342 147.187 159.562 147.681 159.042C148.564 158.21 149.449 157.325 150.281 156.442C150.801 155.922 151.581 155.61 152.412 155.61H152.411Z" fill="black"/>
</svg>

<svg width="260" height="260" fill="none" xmlns="http://www.w3.org/2000/svg"><path d="M106.288 54.47c-33.41 0-60.475 27.092-60.475 60.475 0 33.41 27.065 60.476 60.475 60.476 11.492 0 22.255-3.199 31.408-8.789.545 1.222 1.222 2.392 2.132 3.432l34.762 39.26a12.549 12.549 0 0 0 9.386 4.264c3.198 0 6.448-1.275 8.866-3.718l8.294-8.295a12.546 12.546 0 0 0 3.718-8.892c0-3.458-1.482-6.916-4.238-9.386l-39.26-34.737c-1.04-.91-2.21-1.585-3.405-2.131a60.276 60.276 0 0 0 8.813-31.46c0-33.437-27.092-60.502-60.476-60.502v.003ZM70.85 150.358c-9.074-9.074-14.664-21.58-14.664-35.412 0-13.858 5.59-26.338 14.664-35.412 9.073-9.073 21.58-14.663 35.411-14.663 13.859 0 26.339 5.59 35.412 14.663 9.074 9.074 14.665 21.58 14.665 35.412 0 13.39-5.252 25.455-13.78 34.45l-1.82 1.82c-8.996 8.555-21.086 13.807-34.477 13.807-13.831.025-26.311-5.59-35.411-14.665Zm81.561 5.252c.806 0 1.535.285 2.029.728l39.234 34.788c.546.495.755 1.04.755 1.612 0 .52-.182 1.04-.65 1.535l-8.294 8.293c-.494.495-.988.65-1.508.65-.572 0-1.092-.208-1.612-.754l-34.761-39.26a3.166 3.166 0 0 1-.729-2.029c0-.831.312-1.611.806-2.131a62.498 62.498 0 0 0 2.6-2.6c.52-.52 1.3-.832 2.131-.832h-.001Z" fill="#000"/></svg>
